plasma/desktoptheme/Materia-Color/icons/klipper.svg

<?xml version="1.0" encoding="UTF-8"?>
<svg width="32" height="32" version="1.1" xmlns="http://www.w3.org/2000/svg">
 <defs id="materia">
  <style id="current-color-scheme" type="text/css">.ColorScheme-Background {color:#181818; } .ColorScheme-ButtonBackground { color:#343434; } .ColorScheme-Highlight { color:#4285f4; } .ColorScheme-Text { color:#dfdfdf; } .ColorScheme-ViewBackground { color:#242424; } .ColorScheme-NegativeText { color:#f44336; } .ColorScheme-PositiveText { color:#4caf50; } .ColorScheme-NeutralText { color:#ff9800; }</style>
 </defs>
 <g id="22-22-klipper" transform="translate(32 10)">
  <rect width="22" height="22" opacity=".001"/>
  <path class="ColorScheme-Text" d="m5 8c-1.108 0-2 0.892-2 2v7c0 1.108 0.892 2 2 2h6c1.108 0 2-0.892 2-2v-7c0-1.108-0.892-2-2-2zm0 2h6v1h-6zm0 2h6v1h-6zm0 2h6v1h-6zm0 2h4v1h-4z" fill="currentColor"/>
  <path class="ColorScheme-Text" d="m11 3c-1.108 0-2 0.892-2 2v7c0 1.108 0.892 2 2 2h6c1.108 0 2-0.892 2-2v-7c0-1.108-0.892-2-2-2zm0 2h6v1h-6zm0 2h6v1h-6zm0 2h6v1h-6zm0 2h4v1h-4z" fill="currentColor" opacity=".35"/>
 </g>
 <g id="klipper">
  <rect width="32" height="32" opacity=".001"/>
  <path class="ColorScheme-Text" d="m7 11c-1.662 0-3 1.3794-3 3.0918v10.816c0 1.7124 1.338 3.0918 3 3.0918h9c1.662 0 3-1.3794 3-3.0918v-10.816c0-1.7124-1.338-3.0918-3-3.0918h-9zm0 3h9v2h-9v-2zm0 3h9v2h-9v-2zm0 3h9v2h-9v-2zm0 3h6v2h-6v-2z" fill="currentColor"/>
  <path class="ColorScheme-Text" d="m16 4c-1.662 0-3 1.3794-3 3.0918v10.816c0 1.7124 1.338 3.0918 3 3.0918h9c1.662 0 3-1.3794 3-3.0918v-10.816c0-1.7124-1.338-3.0918-3-3.0918zm0 3h9v2h-9zm0 3h9v2h-9zm0 3h9v2h-9zm0 3h6v2h-6z" fill="currentColor" opacity=".35"/>
 </g>
</svg>

<svg xmlns="http://www.w3.org/2000/svg" width="32" height="32" version="1.1">
 <defs id="materia">
  <style id="current-color-scheme" type="text/css">
   .ColorScheme-Background {color:#181818; } .ColorScheme-ButtonBackground { color:#343434; } .ColorScheme-Highlight { color:#4285f4; } .ColorScheme-Text { color:#dfdfdf; } .ColorScheme-ViewBackground { color:#242424; } .ColorScheme-NegativeText { color:#f44336; } .ColorScheme-PositiveText { color:#4caf50; } .ColorScheme-NeutralText { color:#ff9800; }
  </style>
 </defs>
 <g id="22-22-klipper" transform="translate(32.000001,10.000001)">
  <rect style="opacity:0.001" width="22" height="22" x="0" y="0"/>
  <path style="fill:currentColor" class="ColorScheme-Text" d="M 5,8 C 3.892,8 3,8.892 3,10 v 7 c 0,1.108 0.892,2 2,2 h 6 c 1.108,0 2,-0.892 2,-2 V 10 C 13,8.892 12.108,8 11,8 Z m 0,2 h 6 v 1 H 5 Z m 0,2 h 6 v 1 H 5 Z m 0,2 h 6 v 1 H 5 Z m 0,2 h 4 v 1 H 5 Z"/>
  <path style="opacity:0.35;fill:currentColor" class="ColorScheme-Text" d="M 11,3 C 9.892,3 9,3.892 9,5 v 7 c 0,1.108 0.892,2 2,2 h 6 c 1.108,0 2,-0.892 2,-2 V 5 C 19,3.892 18.108,3 17,3 Z m 0,2 h 6 v 1 h -6 z m 0,2 h 6 v 1 h -6 z m 0,2 h 6 v 1 h -6 z m 0,2 h 4 v 1 h -4 z"/>
 </g>
 <g id="klipper">
  <rect style="opacity:0.001" width="32" height="32" x="0" y="0"/>
  <path style="fill:currentColor" class="ColorScheme-Text" d="M 7 11 C 5.3379999 11 4 12.379434 4 14.091797 L 4 24.908203 C 4 26.620567 5.3379999 28 7 28 L 16 28 C 17.662 28 19 26.620567 19 24.908203 L 19 14.091797 C 19 12.379434 17.662 11 16 11 L 7 11 z M 7 14 L 16 14 L 16 16 L 7 16 L 7 14 z M 7 17 L 16 17 L 16 19 L 7 19 L 7 17 z M 7 20 L 16 20 L 16 22 L 7 22 L 7 20 z M 7 23 L 13 23 L 13 25 L 7 25 L 7 23 z"/>
  <path style="opacity:0.35;fill:currentColor" class="ColorScheme-Text" d="M 16,4 C 14.338,4 13,5.379434 13,7.091797 V 17.908203 C 13,19.620567 14.338,21 16,21 h 9 c 1.662,0 3,-1.379433 3,-3.091797 V 7.091797 C 28,5.379434 26.662,4 25,4 Z m 0,3 h 9 v 2 h -9 z m 0,3 h 9 v 2 h -9 z m 0,3 h 9 v 2 h -9 z m 0,3 h 6 v 2 h -6 z"/>
 </g>
</svg>
